!!!COM:	Josquin des Pres
**kern	**kern
*part2	*part1
*staff2	*staff1
*clefF4	*clefGv2
*k[]	*k[]
*M2/1	*M2/1
=1-	=1-
2AA	0r
2BB	.
2AA	.
[2D	.
=2	=2
2D]	0r
4C	.
4BB	.
1AA	.
=3	=3
0r	2E
.	2F
.	2E
.	[2A
=4	=4
0r	2A]
.	4G
.	4F
.	1E
=5	=5
2D	0r
2E	.
2D	.
[2G	.
=6	=6
2G]	0r
4F	.
4E	.
1D	.
=7	=7
0r	2A
.	2B
.	2A
.	[2d
=8	=8
0r	2d]
.	4c
.	4B
.	1A
=9	=9
2E	0r
2F	.
2E	.
[2A	.
=10	=10
2A]	0r
4G	.
4F	.
1E	.
=11	=11
1r	2B
.	2c
[1E	2B
.	[2e
=12	=12
2E]	2e]
2F	4d
.	4c
1G	1B
=13	=13
1A	1r
2.E	[1B
4F	.
=14	=14
2G	2B]
2A	2c
1F	1d
=15	=15
1E	1e
1r	2.B
.	4c
=16	=16
2r	2d
2.C	2e
.	1c
4D	.
4E	.
4F	.
=17	=17
2G	2B
2E	2.G
2.G	.
.	4A
.	4B
4F	4c
=18	=18
2D	2d
2G	2B
2F	2A
2D	2d
=19	=19
2.F	2c
.	2A
4E	.
2C	2.c
[2E	.
.	4B
=20	=20
4E]	2G
4D	.
2C	1A
1BB	.
.	2G
=21	=21
0AA	[0A
=22	=22
2r	0A]
2D	.
2D	.
2D	.
=23	=23
1.F	2r
.	2A
.	2A
4E	2A
4D	.
=24	=24
2E	1.c
2AA	.
1A	.
.	4B
.	4A
=25	=25
1.G	2B
.	2E
.	1e
4F	.
4E	.
=26	=26
2F	1.d
2G	.
1D	.
.	4c
.	4B
=27	=27
2.A	2c
.	2A
4F	.
2G	2B
2A	[2c
=28	=28
1E	2c]
.	4B
.	4A
2r	2G
2AA	2A
=29	=29
2AA	1E
2AA	.
[1C	2r
.	2E
=30	=30
2C]	2E
4BB	2E
4AA	.
2BB	[1G
2C	.
=31	=31
4GG	2G]
4AA	.
4BB	4F
4C	4E
2D	2F
2E	2G
=32	=32
2F	2.D
1D	.
.	4F
.	1E
2C	.
=33	=33
1D	0D
2r	.
2D	.
=34	=34
2D	1r
2D	.
[1F	2r
.	2A
=35	=35
2F]	2A
4E	2A
4D	.
2E	[1c
2F	.
=36	=36
4C	2c]
4D	.
4E	4B
4F	4A
2G	2B
2A	2c
=37	=37
2B	2.G
1G	.
.	4B
.	1A
2F	.
=38	=38
1G	[0G
2r	.
2E	.
=39	=39
2E	1G]
2E	.
[1G	2r
.	2B
=40	=40
2G]	2B
4F	2B
4E	.
2F	[1d
2G	.
=41	=41
4D	2d]
4E	.
4F	4c
4G	4B
2A	2c
2B	2d
=42	=42
2c	2.A
1A	.
.	4c
.	1B
2G	.
=43	=43
1A	[0A
2r	.
2AA	.
=44	=44
2AA	1A]
2AA	.
[1C	2r
.	2E
=45	=45
2C]	2E
4BB	2E
4AA	.
2BB	[1G
2C	.
=46	=46
4GG	2G]
4AA	.
4BB	4F
4C	4E
2D	2F
2E	2G
=47	=47
2F	2.D
1D	.
.	4F
.	1E
2C	.
=48	=48
0D	0D
==	==
*-	*-
